X: 62
T:Ally Croaker. JB.61
M:4/4
L:1/8
S:James Biggins MS, Leeds, 1779.
R:Reel
O:England
A:Yorkshire
Z:vmp.Nick Barber & Chris Partington
K:G
ABdef2fe|f2fa gee2|ABdef2fa|gedB BAA2:|!
|:a2afg2ge|a2af gee2|a2afg2fe|dfed ^cAA2|!
a2afg2ge|a2af gee2|ABdef2fa|gedB BAA2:|]
W:Version
